polaris-icons/icons/new-icons/SortAscendingMajor.svg

<svg width="20" height="20" viewBox="0 0 20 20" fill="none" xmlns="http://www.w3.org/2000/svg">
<path fill-rule="evenodd" clip-rule="evenodd" d="M12.3235 8.9995H7.67646C7.1132 8.9995 6.79745 8.43399 7.14546 8.04923L9.46899 5.47444C9.73975 5.17519 10.261 5.17519 10.531 5.47444L12.8545 8.04848C13.2025 8.43399 12.8868 8.9995 12.3235 8.9995ZM7.67646 11H12.3235C12.8868 11 13.2025 11.5655 12.8545 11.9503L10.531 14.5251C10.2603 14.8243 9.739 14.8243 9.46899 14.5251L7.14546 11.951C6.79745 11.5655 7.1132 11 7.67646 11Z" fill="#4A4A4A"/>
</svg>

<svg viewBox="0 0 20 20" xmlns="http://www.w3.org/2000/svg"><path fill-rule="evenodd" d="M12.323 9h-4.647c-.563 0-.879-.566-.53-.95l2.323-2.576c.27-.299.792-.299 1.062 0l2.323 2.574c.349.386.033.951-.53.951Zm-4.647 2h4.647c.564 0 .88.566.531.95l-2.323 2.575c-.27.3-.792.3-1.062 0l-2.324-2.574c-.348-.386-.032-.951.531-.951Z" fill="#5C5F62"/></svg>
